assets/Link/Flat/link_flat.svg

<svg width="32" height="32" viewBox="0 0 32 32" fill="none" xmlns="http://www.w3.org/2000/svg">
<path d="M21.1475 21.1475C19.5275 20.7171 18.3006 21.0135 16.5275 21.7175L13.1175 25.1275C11.3475 26.8975 8.4775 26.8975 6.7175 25.1275C4.9475 23.3575 4.9475 20.4875 6.7175 18.7275L10.1275 15.3175H11.0489L13.4375 13.4475C14.7475 13.3075 16.1175 13.7175 17.1175 14.7275C18.1175 15.7375 18.5375 17.0975 18.3975 18.4075C19.1157 19.1907 20.0747 19.3579 20.8347 18.5979L21.7075 16.5375C21.4375 14.9975 20.7075 13.5175 19.5175 12.3275C18.3275 11.1375 16.8475 10.4075 15.3075 10.1375L13.1175 9.46387L10.6975 10.6975C9.8375 11.0775 9.0275 11.6175 8.3175 12.3275L4.3175 16.3275C1.2275 19.4175 1.2275 24.4475 4.3175 27.5375C7.4075 30.6275 12.4375 30.6275 15.5275 27.5375L19.5275 23.5375C20.2275 22.8275 20.7675 22.0175 21.1475 21.1475Z" fill="#9B9B9B"/>
<path d="M27.5277 4.3175C24.4377 1.2275 19.4077 1.2275 16.3177 4.3175L12.3177 8.3175C11.6177 9.0275 11.0777 9.8375 10.6977 10.6975C12.1577 10.0475 13.7677 9.8575 15.3177 10.1275L18.7277 6.7175C20.4977 4.9475 23.3677 4.9475 25.1277 6.7175C26.8877 8.4875 26.8977 11.3575 25.1277 13.1175L21.7177 16.5275L21.1277 17.1175C20.3677 17.8775 19.3977 18.2875 18.4077 18.3975C17.0977 18.5375 15.7277 18.1275 14.7277 17.1175C13.7277 16.1075 13.3077 14.7475 13.4477 13.4375C12.4477 13.5475 11.4877 13.9575 10.7277 14.7175L10.1377 15.3075C10.4077 16.8475 11.1377 18.3275 12.3277 19.5175C13.5177 20.7075 14.9977 21.4375 16.5377 21.7075C18.0877 21.9775 19.6977 21.7875 21.1577 21.1375C22.0177 20.7575 22.8277 20.2175 23.5377 19.5075L27.5377 15.5075C30.6177 12.4375 30.6177 7.4075 27.5277 4.3175Z" fill="#BEBEBE"/>
</svg>

<svg xmlns="http://www.w3.org/2000/svg" width="32" height="32" fill="none"><path fill="#9B9B9B" d="M21.148 21.148c-1.62-.43-2.847-.134-4.62.57l-3.41 3.41a4.52 4.52 0 0 1-6.4 0 4.52 4.52 0 0 1 0-6.4l3.41-3.41h.92l2.39-1.87c1.31-.14 2.68.27 3.68 1.28s1.42 2.37 1.28 3.68c.718.783 1.677.95 2.437.19l.872-2.06c-.27-1.54-1-3.02-2.19-4.21a7.859 7.859 0 0 0-4.21-2.19l-2.19-.674-2.42 1.233c-.86.38-1.67.92-2.38 1.63l-4 4c-3.09 3.09-3.09 8.12 0 11.21 3.09 3.09 8.12 3.09 11.21 0l4-4a7.9 7.9 0 0 0 1.62-2.39Z"/><path fill="#BEBEBE" d="M27.528 4.317c-3.09-3.09-8.12-3.09-11.21 0l-4 4c-.7.71-1.24 1.52-1.62 2.38a7.99 7.99 0 0 1 4.62-.57l3.41-3.41a4.52 4.52 0 0 1 6.4 0c1.76 1.77 1.77 4.64 0 6.4l-3.41 3.41-.59.59c-.76.76-1.73 1.17-2.72 1.28-1.31.14-2.68-.27-3.68-1.28s-1.42-2.37-1.28-3.68c-1 .11-1.96.52-2.72 1.28l-.59.59c.27 1.54 1 3.02 2.19 4.21a7.859 7.859 0 0 0 4.21 2.19 7.99 7.99 0 0 0 7-2.2l4-4c3.08-3.07 3.08-8.1-.01-11.19Z"/></svg>
